src/icons/log.svg

<?xml version="1.0" encoding="UTF-8"?>
<svg xmlns="http://www.w3.org/2000/svg" xmlns:xlink="http://www.w3.org/1999/xlink" width="32" height="32" viewBox="0 0 32 32" version="1.1">
<g id="surface1">
<path style=" stroke:none;fill-rule:nonzero;fill:rgb(72.941178%,72.941178%,72.941178%);fill-opacity:1;" d="M 0 27.136719 L 18.207031 27.136719 L 18.207031 32 L 0 32 L 0 27.136719 M 0 9.054688 L 32 9.054688 L 32 13.921875 L 0 13.921875 Z M 0 0 L 32 0 L 32 4.863281 L 0 4.863281 Z M 0 18.113281 L 32 18.113281 L 32 22.976562 L 0 22.976562 Z M 0 18.113281 "/>
</g>
</svg>

<svg role="img" viewBox="0 0 32 32" xmlns="http://www.w3.org/2000/svg"><path d="M0 27.137h18.207V32H0zM0 9.055h32v4.867H0ZM0 0h32v4.863H0Zm0 18.113h32v4.864H0Zm0 0" style="stroke:none;fill-rule:nonzero;fill:rgb(72.941178%,72.941178%,72.941178%);fill-opacity:1"/></svg>
